packages/webapp/public/images/template-logos/braintree-sandbox.svg

<svg width="62" height="62" viewBox="0 0 62 62" fill="none" xmlns="http://www.w3.org/2000/svg">
<rect width="62" height="62" rx="10" fill="white"/>
<path d="M11.4448 52.7938V46.4172H16.7591V15.3766H11.4448V9H32.4823C42.0474 9 47.9991 13.2515 47.9991 20.9034C47.9991 25.7846 45.0223 28.7684 41.197 30.2561C46.7245 31.7439 50.5498 35.3574 50.5498 40.4586C50.5553 48.5361 44.1794 53 33.5438 53H11.4448V52.7938ZM23.9848 15.3834V27.2875H31.8498C37.8015 27.2875 40.7776 25.1618 40.7776 21.3358C40.7776 17.2974 37.589 15.3841 31.6373 15.3841L23.9848 15.3834ZM23.9848 46.4172H32.9126C39.9272 46.4172 43.3283 44.2914 43.3283 40.0406C43.3283 35.7898 39.7148 33.6641 32.4878 33.6641H23.9855L23.9848 46.4172Z" fill="#3E3C42"/>
</svg>

<svg xmlns="http://www.w3.org/2000/svg" width="62" height="62" fill="none"><rect width="62" height="62" rx="31" fill="#fff"/><path d="M11.445 52.794v-6.377h5.314V15.377h-5.314V9h21.038c9.565 0 15.517 4.252 15.517 11.903 0 4.881-2.977 7.865-6.802 9.353 5.527 1.488 9.353 5.101 9.353 10.202C50.555 48.536 44.179 53 33.544 53H11.445v-.206zm12.54-37.41v11.904h7.865c5.952 0 8.928-2.126 8.928-5.952 0-4.038-3.189-5.952-9.14-5.952l-7.653-.001zm0 31.034h8.928c7.015 0 10.416-2.126 10.416-6.377s-3.614-6.376-10.841-6.376h-8.502v12.753z" fill="#3e3c42"/></svg>
